!!!COM: Charles Gounod
!!!CNT: Francais
!!!TXO: Francais
!!!OTL: O Ma Belle Rebelle!
!!!LYR: Jean-Antoine de Bai2f
!!!ENC: Jacob Pegg
!!!YOR: Romantic French Song 1830-1870 -David Tunley, ed.,
!!!YOR: New York: Garland Publishing, Inc., 1995, Vol. 5
!!!ODT: 1855/
!!NB: Vocal melody and text only encoded.
!!NB: First instance of melodic material only encoded.
**kern	**silbe
*clef G2	*
*k[b-e-]	*
*M2/4	*
*MM[andantino]	*
!!created: 6/16/03 23:41
!!proofed and posted: 7/21/03 23:21
!!edit time: 23 min.
=4	=4
4r	.
{8b-	{O
8b-	ma
=5	=5
4b-	bel-
8a	-le
8a	re-
=6	=6
4dd	-bel-
8g}	-le!}
{8g	{Las!
=7	=7
8g	que
8cc	tu
8b-	m'es
8g	cru-
=8	=8
4g	-el-
8f#}	-le,}
{8dd	{Ou
=9	=9
8cc#	quand
8dd	d'un
8ccn	doux
8dd	sou-
=10	=10
8bn}	-ris,}
{8dd	{Lar-
8cc	-ron
8b-	de
=11	=11
4.a	mes
8a	es-
=12	=12
4g}	-prits,}
{8dd	{Ou
8dd	quand
=13	=13
4ff	d'u-
8een	-ne
8dd	pa-
=14	=14
8a	-ro-
8a}	-le,}
{8dd	{Mi-
8dd	-gnar-
=15	=15
4f	-de\-
8een	-te-
8dd	-ment
=16	=16
4a	mol-
8a}	-le,}
{8dd	{Ou
=17	=17
8dd	quand
8ff	d'un
8ff	re-
8cc	-gard
=18	=18
8ee-}	d'yeux}
{8dd	{Fie\-
8cc	-re-
8b-	-ment
=19	=19
4.cc	gra-
8cc	-ci-
=20	=20
[2a	-eux,
=21	=21
4a]}	|}
4r	.
=22	=22
8r	.
{8dd	{Ou
8dd	quand
8cc	d'un
=23	=23
8b-	pe-
8g	-tit
4g	ges-
=24	=24
8a}	-te,}
8r	.
{8dd	{Tout
8dd	di-
=25	=25
4dd	-vin,
8dd	tout
8dd	ce/-
=26	=26
4ee-	-les-
8dd}	-te,}
{8b-	{En
=27	=27
8b-	a-
8cc	-mou-
8a	-reuse
8a	ar-
=28	=28
4.dd}	-deur}
{8g	{Tu
=29	=29
8a	plon-
8a	-ges
8a	tout
(16cc	mon
16b-)	|
=30	=30
2a}	coeur!}
=31	=31
8r	.
{8b-	{En
8b-	a-
[8ee-	-mou-
=32	=32
8ee-]	|
4ee-	-reuse
(16dd	ar-
16cc)	|
=33	=33
8dd}	-deur}
{8g	{Tu
8cc	plon-
8b-	-ges
=34	=34
(16aq	tout
16b-q	|
4.a)	|
8a	mon
=35	=35
4g}	coeur!}
4r	.
*-	*-
